X:1
T:Chapin, SM
T:Chapin, SM
T:Joshua Gill
T:Public Domain Courtesy of the Cyber Hymnal™
C:Joshua Gill
Z:Public Domain
Z:Courtesy of the Cyber Hymnal™
%%score 1 ( 2 3 )
L:1/8
Q:1/4=140
M:4/4
K:E
V:1 treble 
V:2 bass 
V:3 bass 
V:1
 [EB]4 [EG]2 [CF]2 | [B,E]4 [DF]4 | [EG]8 | [EG]4 [EA]2 [EG]2 | [DF]4 [DA]4 | [EG]8 | %6
 [GB]4 [GB]2 [FA]2 | ([EG]2 [GB]2) ([FA]2 [Ac]2) | ([GB]2 [FA]2) ([EG]2 [DF]2) | [EG]8 | %10
 [EG]4 [EG]2 [CF]2 | [B,E]4 [DF]4 | [EG]8 |] %13
V:2
 [E,G,]4 [E,B,]2 [A,,A,]2 | [B,,G,]4 [B,,B,]4 | [E,B,]8 | [E,B,]4 C2 [E,B,]2 | [B,,B,]4 [A,,B,]4 | %5
 [E,B,]8 | [E,E]4 [E,E]2 [F,B,]2 | [G,B,]4 (C2 D2) | [B,E]4 [B,,B,]4 | [E,B,]8 | %10
 [C,C]4 [C,G,]2 [A,,A,]2 | [B,,G,]4 [B,,B,]4 | [E,B,]8 |] %13
V:3
 x8 | x8 | x8 | x8 | x8 | x8 | x8 | x4 A,4 | x8 | x8 | x8 | x8 | x8 |] %13

